images/arrow-target.svg

<svg fill="none" height="38" viewBox="0 0 42 38" width="42" xmlns="http://www.w3.org/2000/svg"><g style="fill-rule:evenodd;clip-rule:evenodd;stroke:#fc615a;stroke-width:1.5;stroke-linecap:round;stroke-linejoin:round"><path d="m16.3333 32.7333c8.4684 0 15.3334-6.8649 15.3334-15.3333 0-8.46835-6.865-15.33332-15.3334-15.33332-8.46833 0-15.3333 6.86497-15.3333 15.33332 0 8.4684 6.86497 15.3333 15.3333 15.3333z"/><path d="m16.3333 26.7333c5.1547 0 9.3334-4.1786 9.3334-9.3333 0-5.1546-4.1787-9.33332-9.3334-9.33332-5.1546 0-9.3333 4.17872-9.3333 9.33332 0 5.1547 4.1787 9.3333 9.3333 9.3333z"/><path d="m16.3333 20.0667c1.4728 0 2.6667-1.1939 2.6667-2.6667s-1.1939-2.6667-2.6667-2.6667-2.6667 1.1939-2.6667 2.6667 1.1939 2.6667 2.6667 2.6667z"/></g><path d="m8.30975 30.4526c.21311-.3552.09793-.8159-.25725-1.029-.35519-.2131-.81588-.098-1.02899.2572zm-5.28624 5.8949c-.21311.3552-.09794.8159.25724 1.029.35519.2131.81588.0979 1.029-.2573zm22.61959-6.6667c-.2131-.3552-.6738-.4703-1.029-.2572s-.4704.6738-.2573 1.029zm2.7137 7.4384c.2132.3552.6738.4704 1.029.2573s.4704-.6738.2573-1.029zm-21.33329-7.4384-4 6.6667 1.28624.7717 4-6.6666zm17.33329.7718 4 6.6666 1.2863-.7717-4-6.6667z" fill="#fc615a"/><path d="m15.9582 16.8172c-.3587.2072-.4814.666-.2742 1.0246.2072.3587.6659.4815 1.0245.2743zm20.1085-10.75054.3752.64942c.1701-.09828.2949-.25938.3474-.44868zm2.056-4.59926c.1108-.39911-.1228-.812514-.5219-.923376s-.8125.122803-.9234.521906zm-1.8246 3.88585c-.394-.12779-.817.08802-.9448.48203s.088.81701.482.9448zm4.4706 3.02683c.394.12779.817-.08803.9448-.48204.1277-.39401-.0881-.81701-.4821-.94479zm-24.0602 9.73602 19.7334-11.40002-.7504-1.29884-19.7333 11.39996zm20.0808-11.8487 1.3334-4.8-1.4453-.40147-1.3333 4.8zm-.954.51268 4.9334 1.6.4627-1.42683-4.9333-1.6z" fill="#fc615a"/></svg>

<svg width="42" height="38" viewBox="0 0 42 38" fill="none" xmlns="http://www.w3.org/2000/svg">
<path fill-rule="evenodd" clip-rule="evenodd" d="M16.3333 32.7333C24.8017 32.7333 31.6667 25.8684 31.6667 17.4C31.6667 8.93165 24.8017 2.06668 16.3333 2.06668C7.86497 2.06668 1 8.93165 1 17.4C1 25.8684 7.86497 32.7333 16.3333 32.7333Z" stroke="#FC615A" stroke-width="1.5" stroke-linecap="round" stroke-linejoin="round"/>
<path fill-rule="evenodd" clip-rule="evenodd" d="M16.3333 26.7333C21.488 26.7333 25.6667 22.5547 25.6667 17.4C25.6667 12.2454 21.488 8.06668 16.3333 8.06668C11.1787 8.06668 7 12.2454 7 17.4C7 22.5547 11.1787 26.7333 16.3333 26.7333Z" stroke="#FC615A" stroke-width="1.5" stroke-linecap="round" stroke-linejoin="round"/>
<path fill-rule="evenodd" clip-rule="evenodd" d="M16.3333 20.0667C17.8061 20.0667 19 18.8728 19 17.4C19 15.9272 17.8061 14.7333 16.3333 14.7333C14.8605 14.7333 13.6666 15.9272 13.6666 17.4C13.6666 18.8728 14.8605 20.0667 16.3333 20.0667Z" stroke="#FC615A" stroke-width="1.5" stroke-linecap="round" stroke-linejoin="round"/>
<path d="M8.30975 30.4526C8.52286 30.0974 8.40768 29.6367 8.0525 29.4236C7.69731 29.2105 7.23662 29.3256 7.02351 29.6808L8.30975 30.4526ZM3.02351 36.3475C2.8104 36.7027 2.92557 37.1634 3.28075 37.3765C3.63594 37.5896 4.09663 37.4744 4.30975 37.1192L3.02351 36.3475ZM25.6431 29.6808C25.43 29.3256 24.9693 29.2105 24.6141 29.4236C24.2589 29.6367 24.1437 30.0974 24.3568 30.4526L25.6431 29.6808ZM28.3568 37.1192C28.57 37.4744 29.0306 37.5896 29.3858 37.3765C29.741 37.1634 29.8562 36.7027 29.6431 36.3475L28.3568 37.1192ZM7.02351 29.6808L3.02351 36.3475L4.30975 37.1192L8.30975 30.4526L7.02351 29.6808ZM24.3568 30.4526L28.3568 37.1192L29.6431 36.3475L25.6431 29.6808L24.3568 30.4526Z" fill="#FC615A"/>
<path d="M15.9582 16.8172C15.5995 17.0244 15.4768 17.4832 15.684 17.8418C15.8912 18.2005 16.3499 18.3233 16.7085 18.1161L15.9582 16.8172ZM36.0667 6.06666L36.4419 6.71608C36.612 6.6178 36.7368 6.4567 36.7893 6.2674L36.0667 6.06666ZM38.1227 1.4674C38.2335 1.06829 37.9999 0.654886 37.6008 0.544024C37.2017 0.433162 36.7883 0.666827 36.6774 1.06593L38.1227 1.4674ZM36.2981 5.35325C35.9041 5.22546 35.4811 5.44127 35.3533 5.83528C35.2255 6.22929 35.4413 6.65229 35.8353 6.78008L36.2981 5.35325ZM40.7687 8.38008C41.1627 8.50787 41.5857 8.29205 41.7135 7.89804C41.8412 7.50403 41.6254 7.08103 41.2314 6.95325L40.7687 8.38008ZM16.7085 18.1161L36.4419 6.71608L35.6915 5.41724L15.9582 16.8172L16.7085 18.1161ZM36.7893 6.2674L38.1227 1.4674L36.6774 1.06593L35.3441 5.86593L36.7893 6.2674ZM35.8353 6.78008L40.7687 8.38008L41.2314 6.95325L36.2981 5.35325L35.8353 6.78008Z" fill="#FC615A"/>
</svg>
